X:1
T:Yet There Is Room, 10.10.10
T:Yet There Is Room, 10.10.10
T:Ira David Sankey, 1875
T:Public Domain Courtesy of the Cyber Hymnal™
C:Ira David Sankey, 1875
Z:Public Domain
Z:Courtesy of the Cyber Hymnal™
%%score ( 1 2 ) 3
L:1/8
Q:1/4=100
M:4/4
K:F
V:1 treble 
V:2 treble 
V:3 bass 
V:1
 [Ac]2 [^G=B]>[Ac] [FA]2 [CF]2 | [FA]>[FA] [CG][CF] [EG]4 | [EB]2 [Ec]>[EG] [GB]2 [FA]2 | %3
 [EG]>[Ec] [F=B][Fd] [Ec]4 | [Fc]4 [FA]2 z2 | [Fc]4 [FA]2 z [CF] | [FA]3 [FB] [FA]2 [EG]2 | %7
 F6 z2 |] %8
V:2
 x8 | x8 | x8 | x8 | x8 | x8 | x8 | F6 x2 |] %8
V:3
 [F,C]2 [F,C]>[F,C] [F,C]2 [F,A,]2 | [F,C]>[F,C] [E,B,][F,A,] [C,C]4 | %2
 [C,C]2 [C,G,]>[C,C] [E,C]2 [F,C]2 | [G,C]>[G,C] [G,D][G,=B,] [C,C]4 | [F,A,]4 [F,C]2 z2 | %5
 [F,A,]4 [F,C]2 z [F,A,] | [F,C]3 [B,,D] [C,C]2 [C,B,]2 | [F,,F,A,]6 z2 |] %8

